icon/fa/pen-to-square.svg

<svg xmlns="http://www.w3.org/2000/svg" viewBox="0 0 512 512"><!--! Font Awesome Free 6.1.2 by @fontawesome - https://fontawesome.com License - https://fontawesome.com/license/free (Icons: CC BY 4.0, Fonts: SIL OFL 1.1, Code: MIT License) Copyright 2022 Fonticons, Inc.--><path d="M490.3 40.4c21.9 21.87 21.9 57.33 0 79.2l-30 30.1-98-97.98 30.1-30.06c21.9-21.873 57.3-21.873 79.2 0l18.7 18.74zM172.4 241.7 339.7 74.34l98 97.96-167.4 167.3c-6.1 6.2-13.6 10.8-21.9 13.6l-88.8 29.6c-9.5 2.8-18.1.6-24.6-6.7-6.4-5.6-8.6-15.1-5.8-23.7l29.6-88.8c2.8-8.3 7.4-15.8 13.6-21.9zM192 63.1c17.7 0 32 15.23 32 32 0 18.6-14.3 32-32 32H96c-17.67 0-32 15.2-32 32V416c0 17.7 14.33 32 32 32h256c17.7 0 32-14.3 32-32v-96.9c0-16.8 14.3-32 32-32s32 15.2 32 32V416c0 53-43 96-96 96H96c-53.02 0-96-43-96-96V159.1c0-53 42.98-96 96-96h96z"/></svg>

<svg xmlns="http://www.w3.org/2000/svg" viewBox="0 0 512 512" height="1em" width="1em">
<!--! Font Awesome Free 6.1.2 by @fontawesome - https://fontawesome.com License - https://fontawesome.com/license/free (Icons: CC BY 4.0, Fonts: SIL OFL 1.1, Code: MIT License) Copyright 2022 Fonticons, Inc.-->
  <path d="M490.3 40.4C512.2 62.27 512.2 97.73 490.3 119.6L460.3 149.7L362.3 51.72L392.4 21.66C414.3-.2135 449.7-.2135 471.6 21.66L490.3 40.4zM172.4 241.7L339.7 74.34L437.7 172.3L270.3 339.6C264.2 345.8 256.7 350.4 248.4 353.2L159.6 382.8C150.1 385.6 141.5 383.4 135 376.1C128.6 370.5 126.4 361 129.2 352.4L158.8 263.6C161.6 255.3 166.2 247.8 172.4 241.7V241.7zM192 63.1C209.7 63.1 224 78.33 224 95.1C224 113.7 209.7 127.1 192 127.1H96C78.33 127.1 64 142.3 64 159.1V416C64 433.7 78.33 448 96 448H352C369.7 448 384 433.7 384 416V319.1C384 302.3 398.3 287.1 416 287.1C433.7 287.1 448 302.3 448 319.1V416C448 469 405 512 352 512H96C42.98 512 0 469 0 416V159.1C0 106.1 42.98 63.1 96 63.1H192z"/>
</svg>
